img/star-lab-color.svg

<svg fill="none" height="17" viewBox="0 0 16 17" width="16" xmlns="http://www.w3.org/2000/svg"><path d="m6.94378 1.98584c.33491-1.074871 1.79315-1.074871 2.12807 0l.88548 2.84193c.14977.4807.57937.80616 1.06407.80616h2.8655c1.0838 0 1.5344 1.44623.6576 2.11054l-2.3183 1.75641c-.3921.29709-.5562.82372-.4064 1.30442l.8855 2.8419c.3349 1.0749-.8448 1.9687-1.7216 1.3044l-2.31828-1.7564c-.39212-.2971-.92309-.2971-1.31521 0l-2.31825 1.7564c-.87681.6643-2.05655-.2295-1.72164-1.3044l.88549-2.8419c.14978-.4807-.0143-1.00733-.40642-1.30442l-2.31825-1.75641c-.876811-.66431-.42619-2.11054.6576-2.11054h2.86552c.48469 0 .91425-.32546 1.06403-.80616z" fill="#27899e"/></svg>

<svg width="16" height="17" viewBox="0 0 16 17" fill="none" xmlns="http://www.w3.org/2000/svg">
<path d="M6.94378 1.98584C7.27869 0.910969 8.73693 0.910969 9.07185 1.98584L9.95733 4.82777C10.1071 5.30847 10.5367 5.63393 11.0214 5.63393H13.8869C14.9707 5.63393 15.4213 7.08016 14.5445 7.74447L12.2262 9.50088C11.8341 9.79797 11.67 10.3246 11.8198 10.8053L12.7053 13.6472C13.0402 14.7221 11.8605 15.6159 10.9837 14.9516L8.66542 13.1952C8.2733 12.8981 7.74233 12.8981 7.35021 13.1952L5.03196 14.9516C4.15515 15.6159 2.97541 14.7221 3.31032 13.6472L4.19581 10.8053C4.34559 10.3246 4.18151 9.79797 3.78939 9.50088L1.47114 7.74447C0.594329 7.08016 1.04495 5.63393 2.12874 5.63393H4.99426C5.47895 5.63393 5.90851 5.30847 6.05829 4.82777L6.94378 1.98584Z" fill="#27899E"/>
</svg>
